X:4
%%staffsep .8in
%%staffwidth 750
T:荷塘月色 (Moonlight over the Lotus Pond)
T:(9-Hole Hulusi in Bb)
C:Composed by ZHANG Chao
C:Arranged by LUO Zijun
L:1/8
M:4/4
Q:1/4=98
%%barnumbers 0
%%measurenb 0
V:4 clef=treble
%%jianpu 1
%%MIDI program 5
K:Bbmaj
%%visualtranspose -10_of_semitones
B3f BfBc | d8 | B3f BfBc | c3 f/2d/2 c2 f2 |
B3f BfcB | G4 z FBc | B3 f BfBG| B4 z g/2f/2dc ||
BB2 GF2G2 | B2 Bc d4 | cc2 Bc2 cf | fddc d4 | 
BB2 GF2f2 | dcdc B4 | cc2B cc2d | cBGc BG/2B/2cd |
|: BB2 GF2G2 | BB2 c d4 | cc2 B c2 cf | fddc dG/2B/2cd |
BBBG F2 f2 | dcdc B4 | cc2 B cc2 d | cBGc B4 ||
ff2f f2 f2 | gfdc B4 | gbgf dcBG | c2 cd c4 |
df2f f2 f2 | gfdc B4 | GBGF c2 dB | B8 || 
B3f BfBc | d8 | B3f BfBc | c3 f/2d/2 c2 f2 | 
B3f BfcB | G4 z FBc | B3 f BfBG |1 B4 z g/2f/2dc :|2 B8 || F8 |]

